docs/headlamp_light.svg

<svg width="735" height="116" viewBox="0 0 735 116" fill="none" xmlns="http://www.w3.org/2000/svg">
<path d="M92.3 73.5V46.3L85.1 36.9V21.1L62 12.8V0H30.3V12.8L7.2 21.1V36.9L0 46.3V73.5L7.2 83.2L0 105.6L46.2 115.8L92.3 105.6L85.1 83.2L92.3 73.5Z" fill="black"/>
<path d="M46.2 83.2C58.9578 83.2 69.3 72.8578 69.3 60.1C69.3 47.3422 58.9578 37 46.2 37C33.4422 37 23.1 47.3422 23.1 60.1C23.1 72.8578 33.4422 83.2 46.2 83.2Z" fill="#FAEC20"/>
<path d="M178.4 107.9H168.4V97.8999V87.8999V77.8999V67.8999H158.4H148.4V77.8999V87.8999V97.8999V107.9H138.4H128.4V97.8999V87.8999V77.8999V67.8999V57.8999V47.8999V37.8999V27.8999V17.8999V7.8999H138.4H148.4V17.8999V27.8999V37.8999V47.8999H158.4H168.4V37.8999V27.8999V17.8999V7.8999H178.4H188.4V17.8999V27.8999V37.8999V47.8999V57.8999V67.8999V77.8999V87.8999V97.8999V107.9H178.4Z" fill="black"/>
<path d="M256.4 107.9H246.4H236.4H226.4H216.4H206.4V97.8999V87.8999V77.8999V67.8999V57.8999V47.8999V37.8999V27.8999V17.8999V7.8999H216.4H226.4H236.4H246.4H256.4H266.4V17.8999V27.8999H256.4H246.4H236.4H226.4V37.8999V47.8999H236.4H246.4H256.4H266.4V57.8999V67.8999H256.4H246.4H236.4H226.4V77.8999V87.8999H236.4H246.4H256.4H266.4V97.8999V107.9H256.4Z" fill="black"/>
<path d="M334.4 107.9H324.4V97.8999V87.8999V77.8999V67.8999H314.4H304.4V77.8999V87.8999V97.8999V107.9H294.4H284.4V97.8999V87.8999V77.8999V67.8999V57.8999V47.8999V37.8999V27.8999V17.8999V7.8999H294.4H304.4H314.4H324.4H334.4H344.4V17.8999V27.8999V37.8999V47.8999V57.8999V67.8999V77.8999V87.8999V97.8999V107.9H334.4ZM314.4 47.8999H324.4V37.8999V27.8999H314.4H304.4V37.8999V47.8999H314.4Z" fill="black"/>
<path d="M392.4 107.9H382.4H372.4H362.4V97.8999V87.8999V77.8999V67.8999V57.8999V47.8999V37.8999V27.8999V17.8999V7.8999H372.4H382.4H392.4H402.4V17.8999V27.8999H412.4H422.4V37.8999V47.8999V57.8999V67.8999V77.8999V87.8999H412.4H402.4V77.8999V67.8999V57.8999V47.8999V37.8999V27.8999H392.4H382.4V37.8999V47.8999V57.8999V67.8999V77.8999V87.8999H392.4H402.4V97.8999V107.9H392.4Z" fill="black"/>
<path d="M490.4 107.9H480.4H470.4H460.4H450.4H440.4V97.8999V87.8999V77.8999V67.8999V57.8999V47.8999V37.8999V27.8999V17.8999V7.8999H450.4H460.4V17.8999V27.8999V37.8999V47.8999V57.8999V67.8999V77.8999V87.8999H470.4H480.4H490.4H500.4V97.8999V107.9H490.4Z" fill="black"/>
<path d="M568.4 107.9H558.4V97.8999V87.8999V77.8999V67.8999H548.4H538.4V77.8999V87.8999V97.8999V107.9H528.4H518.4V97.8999V87.8999V77.8999V67.8999V57.8999V47.8999V37.8999V27.8999V17.8999V7.8999H528.4H538.4H548.4H558.4H568.4H578.4V17.8999V27.8999V37.8999V47.8999V57.8999V67.8999V77.8999V87.8999V97.8999V107.9H568.4ZM548.4 47.8999H558.4V37.8999V27.8999H548.4H538.4V37.8999V47.8999H548.4Z" fill="black"/>
<path d="M646.4 107.9H636.4V97.8999V87.8999V77.8999V67.8999V57.8999V47.8999H626.4H616.4V57.8999V67.8999V77.8999V87.8999V97.8999V107.9H606.4H596.4V97.8999V87.8999V77.8999V67.8999V57.8999V47.8999V37.8999V27.8999V17.8999V7.8999H606.4H616.4V17.8999V27.8999H626.4H636.4V17.8999V7.8999H646.4H656.4V17.8999V27.8999V37.8999V47.8999V57.8999V67.8999V77.8999V87.8999V97.8999V107.9H646.4Z" fill="black"/>
<path d="M684.4 107.9H674.4V97.8999V87.8999V77.8999V67.8999V57.8999V47.8999V37.8999V27.8999V17.8999V7.8999H684.4H694.4H704.4H714.4H724.4H734.4V17.8999V27.8999V37.8999V47.8999V57.8999V67.8999H724.4H714.4H704.4H694.4V77.8999V87.8999V97.8999V107.9H684.4ZM704.4 47.8999H714.4V37.8999V27.8999H704.4H694.4V37.8999V47.8999H704.4Z" fill="black"/>
</svg>

<?xml version="1.0" encoding="UTF-8" standalone="no"?>
<svg
   xmlns:dc="http://purl.org/dc/elements/1.1/"
   xmlns:cc="http://creativecommons.org/ns#"
   xmlns:rdf="http://www.w3.org/1999/02/22-rdf-syntax-ns#"
   xmlns:svg="http://www.w3.org/2000/svg"
   xmlns="http://www.w3.org/2000/svg"
   xmlns:sodipodi="http://sodipodi.sourceforge.net/DTD/sodipodi-0.dtd"
   xmlns:inkscape="http://www.inkscape.org/namespaces/inkscape"
   width="735"
   height="116"
   viewBox="0 0 735 116"
   fill="none"
   version="1.1"
   id="svg22"
   sodipodi:docname="headlamp_light.svg"
   inkscape:version="1.0.1 (3bc2e813f5, 2020-09-07)">
  <metadata
     id="metadata28">
    <rdf:RDF>
      <cc:Work
         rdf:about="">
        <dc:format>image/svg+xml</dc:format>
        <dc:type
           rdf:resource="http://purl.org/dc/dcmitype/StillImage" />
        <dc:title></dc:title>
      </cc:Work>
    </rdf:RDF>
  </metadata>
  <defs
     id="defs26" />
  <sodipodi:namedview
     pagecolor="#ffffff"
     bordercolor="#666666"
     borderopacity="1"
     objecttolerance="10"
     gridtolerance="10"
     guidetolerance="10"
     inkscape:pageopacity="0"
     inkscape:pageshadow="2"
     inkscape:window-width="2048"
     inkscape:window-height="1088"
     id="namedview24"
     showgrid="false"
     inkscape:zoom="1.9863946"
     inkscape:cx="367.5"
     inkscape:cy="42.125558"
     inkscape:window-x="0"
     inkscape:window-y="27"
     inkscape:window-maximized="1"
     inkscape:current-layer="svg22"
     inkscape:document-rotation="0" />
  <rect
     style="fill:#ffffff;stroke:#ffffff;stroke-width:0.980804;stroke-linejoin:round"
     id="rect853"
     width="734.27606"
     height="115.22318"
     x="0.21381894"
     y="0.27651522"
     inkscape:export-xdpi="300"
     inkscape:export-ydpi="300" />
  <g
     id="g862"
     transform="matrix(0.93744133,0,0,0.93744133,26.066567,3.4128899)">
    <path
       d="M 92.3,73.5 V 46.3 L 85.1,36.9 V 21.1 L 62,12.8 V 0 H 30.3 V 12.8 L 7.2,21.1 V 36.9 L 0,46.3 V 73.5 L 7.2,83.2 0,105.6 46.2,115.8 92.3,105.6 85.1,83.2 Z"
       fill="#000000"
       id="path2" />
    <path
       d="M 46.2,83.2 C 58.9578,83.2 69.3,72.8578 69.3,60.1 69.3,47.3422 58.9578,37 46.2,37 33.4422,37 23.1,47.3422 23.1,60.1 c 0,12.7578 10.3422,23.1 23.1,23.1 z"
       fill="#faec20"
       id="path4" />
    <path
       d="m 178.4,107.9 h -10 v -10.0001 -10 -10 -10 h -10 -10 v 10 10 10 10.0001 h -10 -10 v -10.0001 -10 -10 -10 -10 -10 -10 -10 -10 -10 h 10 10 v 10 10 10 10 h 10 10 v -10 -10 -10 -10 h 10 10 v 10 10 10 10 10 10 10 10 10 10.0001 z"
       fill="#000000"
       id="path6" />
    <path
       d="m 256.4,107.9 h -10 -10 -10 -10 -10 v -10.0001 -10 -10 -10 -10 -10 -10 -10 -10 -10 h 10 10 10 10 10 10 v 10 10 h -10 -10 -10 -10 v 10 10 h 10 10 10 10 v 10 10 h -10 -10 -10 -10 v 10 10 h 10 10 10 10 v 10 10.0001 z"
       fill="#000000"
       id="path8" />
    <path
       d="m 334.4,107.9 h -10 v -10.0001 -10 -10 -10 h -10 -10 v 10 10 10 10.0001 h -10 -10 v -10.0001 -10 -10 -10 -10 -10 -10 -10 -10 -10 h 10 10 10 10 10 10 v 10 10 10 10 10 10 10 10 10 10.0001 z m -20,-60.0001 h 10 v -10 -10 h -10 -10 v 10 10 z"
       fill="#000000"
       id="path10" />
    <path
       d="m 392.4,107.9 h -10 -10 -10 v -10.0001 -10 -10 -10 -10 -10 -10 -10 -10 -10 h 10 10 10 10 v 10 10 h 10 10 v 10 10 10 10 10 10 h -10 -10 v -10 -10 -10 -10 -10 -10 h -10 -10 v 10 10 10 10 10 10 h 10 10 v 10 10.0001 z"
       fill="#000000"
       id="path12" />
    <path
       d="m 490.4,107.9 h -10 -10 -10 -10 -10 v -10.0001 -10 -10 -10 -10 -10 -10 -10 -10 -10 h 10 10 v 10 10 10 10 10 10 10 10 h 10 10 10 10 v 10 10.0001 z"
       fill="#000000"
       id="path14" />
    <path
       d="m 568.4,107.9 h -10 v -10.0001 -10 -10 -10 h -10 -10 v 10 10 10 10.0001 h -10 -10 v -10.0001 -10 -10 -10 -10 -10 -10 -10 -10 -10 h 10 10 10 10 10 10 v 10 10 10 10 10 10 10 10 10 10.0001 z m -20,-60.0001 h 10 v -10 -10 h -10 -10 v 10 10 z"
       fill="#000000"
       id="path16" />
    <path
       d="m 646.4,107.9 h -10 v -10.0001 -10 -10 -10 -10 -10 h -10 -10 v 10 10 10 10 10 10.0001 h -10 -10 v -10.0001 -10 -10 -10 -10 -10 -10 -10 -10 -10 h 10 10 v 10 10 h 10 10 v -10 -10 h 10 10 v 10 10 10 10 10 10 10 10 10 10.0001 z"
       fill="#000000"
       id="path18" />
    <path
       d="m 684.4,107.9 h -10 v -10.0001 -10 -10 -10 -10 -10 -10 -10 -10 -10 h 10 10 10 10 10 10 v 10 10 10 10 10 10 h -10 -10 -10 -10 v 10 10 10 10.0001 z m 20,-60.0001 h 10 v -10 -10 h -10 -10 v 10 10 z"
       fill="#000000"
       id="path20" />
  </g>
</svg>
